X:1
T:James Gibb editions
T:Lo here another love - Morley
T:#
%%score [ 1 2 ]
L:1/8
Q:1/4=130
M:4/4
K:F
V:1 treble nm="Soprano I" snm="S I"
V:2 treble nm="Soprano II" snm="S II"
V:1
"^Lo, here another love""^Thomas Morley\n(1557-1602)" z8 | G2 G^F G2 A2 | B4 z4 | d2 dc d2 e2 | %4
w: |Lo here a- no- ther|love,|Lo here a- o- ther|
[M:4/4] f2 d2 G2 B2 | (A2 d3 ^c/=B/ c2) | d4 z2 G2 | (c2 B2 A4) | B8 | G2 G^F G2 A2 | B4 z4 | %11
w: love from heaven de-|scen\- * * * *|ded, de-|scen\- * *|ded,|Lo here a- no- ther|love,|
 G2 G^F G2 A2 | B4 z2 G2 | D2 (F2 EF G2- | GF FE/D/) E4 | D2 d2 G2 (B2 | AG G4) ^F2 | G4 z2 d2 | %18
w: lo here a- no- ther|love from|heaven de\- * * *|* * * * * scen-|ded, from heaven de\-|* * * scen-|ded. That|
 d2 f3 f e2 | f2 d2 e2 ^f2 | (g2 GABc d2 | ^c2 d2 e4) | d2 D2 E2 ^F2 | G4 z2 G2 | F2 E2 D2 G2 | %25
w: with for- ces a-|new and with new|dart\- * * * * *||ing, doth wound the|heart, doth|wound the heart, and|
 B3 c d2 (GA | Bc d2 c2) (B2- | B2 A2) B4 | z2 g2 f2 e2 | d2 G2 B3 c | d2 G2 (F2 B2) | A2 G2 A4 | %32
w: yet doth breed no *|* * * * smart\-|* * ing,|doth wound the|heart, and yet doth|breed no smart\- *|ing, no smart-|
 =B2 G2 G2 _B2- | BB A2 B2 G2 | A2 B2 (c2 A2 | GABc de f2 | e2 d4 ^c2) | d4 z2 A2 | B2 G2 d4 | %39
w: ing. That with for\-|* ces a- new and|with new dart\- *|||ing, doth|wound the heart,|
 z2 g2 f2 e2 | d2 G2 B3 c | d2 B2 _e2 d2 | c4 B2 G2 | F2 E2 D2 G2 | B3 c d2 G2 | (FEDE FG A2 | %46
w: doth wound the|heart and yet doth|breed, doth breed no|smart- ing, doth|wound the heart and|yet doth breed no|smart\- * * * * * *|
 ^F2 G4 F2) | !fermata!G8 |] %48
w: |ing|
V:2
 G2 G^F G2 A2 | B4 z4 | G2 G^F G2 A2 | B4 z2 G2 |[M:4/4] D2 (F2 EF G2- | GF FE/D/) E4 | %6
w: Lo here a- no- ther|love,|Lo here a- no- ther|love from|heaven de\- * * *|* * * * * scen-|
 D2 d2 G2 (B2 | AG G4) ^F2 | G8 | z8 | G2 G^F G2 A2 | B4 z4 | d2 dc d2 e2 | f2 d2 G2 B2 | %14
w: ded, from heaven de\-|* * * scen-|ded,||Lo here a- no- ther|love,|Lo here a- no- ther|love from heaven de-|
 (A2 d3 ^c/=B/ c2) | d4 z2 G2 | c2 B2 A4 | =B2 G2 G2 _B2- | BB A2 B2 G2 | A2 B2 (c2 A2 | %20
w: scen\- * * * *|ded, from|heaven de- scen-|ded, That with for\-|* ces a- new and.|with new dart\- *|
 GABc de f2 | e2 d4 ^c2) | d4 z2 A2 | B2 G2 d4 | z2 g2 f2 e2 | d2 G2 B3 c | d2 B2 _e2 d2 | %27
w: ||ing, doth|wound the heart,|doth wound the|heart, and yet doth|breed, doth breed no|
 c4 B2 G2 | F2 E2 D2 G2 | B3 c d2 G2 | (F2 B2) A2 G2 | (^F2 G4 F2) | G4 z2 d2 | d2 f3 f e2 | %34
w: smart- ing, doth|wound the heart, and|yet doth breed no|smart\- * ing, no|smart\- * *|ing. That|with for- ces a-|
 f2 d2 e2 ^f2 | (g2 GABc d2 | ^c2 d2 e4) | d2 D2 E2 ^F2 | G4 z2 G2 | F2 E2 D2 G2 | B3 c d2 (GA | %41
w: new and with new|dart\- * * * * *||ing, doth wound the|heart, doth|wound the heart and|yet doth breed no *|
 Bc d2 c2) (B2- | B2 A2) B4 | z2 g2 f2 e2 | d2 G2 B3 c | d6 (c2- | c2 B2) A4 | !fermata!=B8 |] %48
w: * * * * smart-|* * ing,|doth wound the|heart, and yet doth|breed no|* * smart-|ing.|

